assets/icons/reddit.svg

<svg width="24" height="24" viewBox="0 0 24 24" fill="none" xmlns="http://www.w3.org/2000/svg">
<path fill-rule="evenodd" clip-rule="evenodd" d="M2 12C2 6.477 6.479 2 12 2C17.521 2 22 6.477 22 12C22 17.521 17.521 22 12 22C6.479 22 2 17.521 2 12ZM17.859 13.769C17.871 13.623 17.871 13.476 17.859 13.33C18.363 13.08 18.68 12.563 18.67 12C18.6595 11.7187 18.568 11.4465 18.4064 11.216C18.2448 10.9855 18.02 10.8067 17.7591 10.701C17.4982 10.5954 17.2123 10.5674 16.9359 10.6204C16.6595 10.6735 16.4043 10.8053 16.201 11C15.0633 10.2269 13.7262 9.79967 12.351 9.77L13 6.65L15.138 7.1C15.163 7.33678 15.2717 7.55688 15.4444 7.72079C15.6171 7.88469 15.8426 7.98167 16.0803 7.9943C16.3181 8.00693 16.5526 7.9344 16.7417 7.78972C16.9308 7.64503 17.0621 7.43768 17.1121 7.20489C17.1621 6.97209 17.1275 6.7291 17.0145 6.51953C16.9014 6.30997 16.7174 6.14755 16.4954 6.06145C16.2734 5.97535 16.028 5.9712 15.8032 6.04974C15.5785 6.12828 15.3891 6.28438 15.269 6.49L12.82 6C12.7396 5.98267 12.6555 5.99771 12.5861 6.04188C12.5166 6.08605 12.4674 6.15579 12.449 6.236V6.24L11.706 9.71C10.3143 9.73147 8.95912 10.159 7.807 10.94C7.6675 10.8085 7.50343 10.7058 7.32419 10.6378C7.14495 10.5698 6.95405 10.5378 6.76243 10.5436C6.57081 10.5495 6.38223 10.5931 6.20747 10.6719C6.03272 10.7507 5.87522 10.8632 5.744 11.003C5.58533 11.1718 5.4691 11.3759 5.40493 11.5985C5.34075 11.8211 5.33046 12.0558 5.37492 12.2831C5.41937 12.5105 5.5173 12.724 5.66059 12.9061C5.80388 13.0881 5.98844 13.2334 6.199 13.33C6.187 13.4761 6.187 13.6229 6.199 13.769C6.199 16.011 8.808 17.831 12.029 17.831C15.25 17.831 17.859 16.009 17.859 13.769ZM9.67001 14.001C10.2228 14.001 10.671 13.5528 10.671 13C10.671 12.4472 10.2228 11.999 9.67001 11.999C9.11717 11.999 8.66901 12.4472 8.66901 13C8.66901 13.5528 9.11717 14.001 9.67001 14.001ZM14.09 15.391C13.4829 15.826 12.7457 16.0408 12 16C11.2548 16.0334 10.5205 15.8111 9.91897 15.37C9.86703 15.3286 9.80164 15.3077 9.7353 15.3115C9.66896 15.3153 9.60634 15.3434 9.55942 15.3904C9.5125 15.4374 9.48457 15.5001 9.48098 15.5665C9.4774 15.6328 9.4984 15.6982 9.53997 15.75C10.25 16.285 11.122 16.559 12.011 16.52C12.8986 16.559 13.7719 16.2866 14.48 15.75V15.79C14.5323 15.7378 14.5623 15.6672 14.5634 15.5932C14.5645 15.5193 14.5367 15.4478 14.486 15.394C14.4602 15.3678 14.4295 15.3469 14.3956 15.3326C14.3617 15.3183 14.3254 15.3108 14.2886 15.3105C14.2518 15.3102 14.2154 15.3172 14.1813 15.331C14.1472 15.3448 14.1162 15.3652 14.09 15.391ZM14.299 12.04C14.0338 12.04 13.7794 12.1454 13.5919 12.3329C13.4043 12.5204 13.299 12.7748 13.299 13.04C13.299 13.3052 13.4043 13.5596 13.5919 13.7471C13.7794 13.9346 14.0338 14.04 14.299 14.04L14.291 14.079C14.3015 14.0803 14.3125 14.0799 14.324 14.0795H14.324C14.3299 14.0792 14.3359 14.079 14.342 14.079C14.6065 14.0681 14.856 13.9527 15.0356 13.7581C15.2152 13.5635 15.3103 13.3056 15.3 13.041C15.3001 12.9095 15.2743 12.7793 15.224 12.6578C15.1738 12.5363 15.1001 12.4259 15.0071 12.3329C14.9141 12.2399 14.8037 12.1662 14.6822 12.1159C14.5607 12.0657 14.4305 12.0399 14.299 12.04Z" fill="#FFCB8F"/>
</svg>

<svg width="24" height="24" fill="none" xmlns="http://www.w3.org/2000/svg"><path fill-rule="evenodd" clip-rule="evenodd" d="M2 12C2 6.477 6.479 2 12 2s10 4.477 10 10c0 5.521-4.479 10-10 10S2 17.521 2 12zm15.859 1.769a2.681 2.681 0 0 0 0-.439c.504-.25.821-.767.811-1.33a1.46 1.46 0 0 0-2.469-1 7.123 7.123 0 0 0-3.85-1.23L13 6.65l2.138.45a1 1 0 1 0 .131-.61L12.82 6a.313.313 0 0 0-.371.236v.004l-.743 3.47a7.145 7.145 0 0 0-3.899 1.23 1.458 1.458 0 0 0-2.432 1.343 1.46 1.46 0 0 0 .824 1.047 2.681 2.681 0 0 0 0 .439c0 2.242 2.609 4.062 5.83 4.062s5.83-1.822 5.83-4.062zm-8.189.232a1.001 1.001 0 1 0 0-2.002 1.001 1.001 0 0 0 0 2.002zm4.42 1.39A3.28 3.28 0 0 1 12 16a3.272 3.272 0 0 1-2.081-.63.27.27 0 0 0-.379.38c.71.535 1.582.809 2.471.77a3.811 3.811 0 0 0 2.469-.77v.04a.284.284 0 0 0 .006-.396.28.28 0 0 0-.396-.003zm.209-3.351a1 1 0 0 0 0 2l-.008.039H14.342a1 1 0 0 0 .958-1.038 1 1 0 0 0-1.001-1.001z" fill="#FFCB8F"/></svg>
